X:1
T:Title
%%score 1 ( 2 3 )
L:1/8
M:3/8
K:D
V:1 treble nm="Grand Piano, Piano"
V:2 bass nm="Grand Piano, Piano"
V:3 bass 
V:1
 z z[Q:1/4=100] D | [DF]2 [EG] | [FA]2 [FA] | [GB]2 [Ac] | [Bd]2 [GB] | [FA]2 [DF] | [DF][CE]D | %7
 [CE]2 [DF] | [CE]2 D | [DF]2 [EG] | [FA]2 [FA] | [GB]2 [Ac] | [Bd]2 [GB] | [FA]2 [DF] | %14
 [DF][CE]D | [DF]2 [CE] |[M:1/4] D2 |[M:1/8] [FA] |[M:3/8] [Fd]2 [Gc] | [Ad]2 [GB] | [FA]2 [DF] | %21
 [FA]2 [FA] | [Fd]2 [Gc] | [Ad]2 [GB] | [FA]2 [DF] | [CE]2 D | [DF]2 [EG] | [FA]2 [FA] | %28
 [GB]2 [Ac] | [Bd]2 [GB] | [FA]2 [DF] | [DF][CE]D | [DF]2 [CE] |[M:1/4] D2 |] %34
V:2
 z z [D,F,] | [D,A,]2 [D,A,] | [D,A,]2 [D,D] | [G,D]2 [G,D] | [G,D]2 [G,D] | [D,D]2 [D,A,] | %6
w: 1.~Sweet~|hour~ of~|prayer!~ sweet~|hour~ of~|prayer!~ that~|calls~ me~|
 A,G,[D,F,] | [A,,A,]2 [A,,A,] | [A,,A,]2 [D,F,] | [D,A,]2 [D,A,] | [D,A,]2 [D,D] | [G,D]2 [G,D] | %12
w: from~ * a~|world~ of~|care,~ and~|bids~ me~|at~ my~|Fa ther's~|
 [G,D]2 [G,D] | [D,D]2 [D,A,] | A,G,[D,F,] | [A,,A,]2 [A,,G,] |[M:1/4] [D,F,]2 |[M:1/8] [D,A,] | %18
w: throne~ make~|all~ my~|wants~ * and~|wish es~|known.~|In~|
[M:3/8] [D,A,]2 [E,A,] | [F,A,]2 [G,D] | [D,D]2 [D,A,] | [D,A,]2 [D,A,] | [D,A,]2 [E,A,] | %23
w: sea sons~|of~ dis|tress~ and~|grief,~ my~|soul~ has~|
 [F,A,]2 [G,D] | [D,D]2 [D,A,] | [A,,A,]2 [D,F,] | [D,A,]2 [D,A,] | [D,A,]2 [D,D] | [G,D]2 [G,D] | %29
w: of ten~|found~ re|lief,~ and~|oft~ es|caped~ the~|temp ter's~|
 [G,D]2 [G,D] | [D,D]2 [D,A,] | A,G,[D,F,] | [A,,A,]2 [A,,G,] |[M:1/4] [D,F,]2 |] %34
w: snare~ by~|thy~ re|turn,~ * sweet~|hour~ of~|prayer!~|
V:3
 x3 | x3 | x3 | x3 | x3 | x3 | D,2 z | x3 | x3 | x3 | x3 | x3 | x3 | x3 | D,2 z | x3 |[M:1/4] x2 | %17
[M:1/8] x |[M:3/8] x3 | x3 | x3 | x3 | x3 | x3 | x3 | x3 | x3 | x3 | x3 | x3 | x3 | D,2 z | x3 | %33
[M:1/4] x2 |] %34

